app/img/benefit.svg

<svg width="70" height="70" viewBox="0 0 70 70" fill="none" xmlns="http://www.w3.org/2000/svg">
<path d="M32.6666 47.8445V22.1779C32.6666 20.1945 31.15 18.6779 29.1666 18.6779H3.5C1.51662 18.6779 0 20.1945 0 22.1779V47.8445C0 49.8279 1.51662 51.3445 3.5 51.3445H29.1666C31.15 51.3445 32.6666 49.8279 32.6666 47.8445ZM2.33338 47.8445V22.1779C2.33338 21.4779 2.8 21.0112 3.5 21.0112H29.1666C29.8666 21.0112 30.3332 21.4779 30.3332 22.1779V47.8445C30.3332 48.5445 29.8666 49.0111 29.1666 49.0111H3.5C2.8 49.0113 2.33338 48.5445 2.33338 47.8445Z" fill="#877BE3"/>
<path d="M5.83337 26.8446H17.5C18.2 26.8446 18.6666 26.378 18.6666 25.678C18.6666 24.978 18.2 24.5114 17.5 24.5114H5.83337C5.13337 24.5114 4.66675 24.978 4.66675 25.678C4.66675 26.378 5.13337 26.8446 5.83337 26.8446Z" fill="#877BE3"/>
<path d="M22.1666 29.1779H9.33337C8.63337 29.1779 8.16675 29.6445 8.16675 30.3445C8.16675 31.0445 8.63337 31.5111 9.33337 31.5111H22.1667C22.8667 31.5111 23.3334 31.0445 23.3334 30.3445C23.3334 29.6445 22.8666 29.1779 22.1666 29.1779Z" fill="#877BE3"/>
<path d="M17.5 33.8445H5.83337C5.13337 33.8445 4.66675 34.3111 4.66675 35.0111C4.66675 35.7111 5.13337 36.1777 5.83337 36.1777H17.5C18.2 36.1777 18.6666 35.7111 18.6666 35.0111C18.6666 34.3111 18.2 33.8445 17.5 33.8445Z" fill="#877BE3"/>
<path d="M11.6666 39.6778C11.6666 38.9778 11.2 38.5112 10.5 38.5112H5.83337C5.13337 38.5112 4.66675 38.9778 4.66675 39.6778C4.66675 40.3778 5.13337 40.8445 5.83337 40.8445H10.5C11.2 40.8445 11.6666 40.3778 11.6666 39.6778Z" fill="#877BE3"/>
<path d="M17.5 43.1779H8.16662C7.46662 43.1779 7 43.6445 7 44.3445C7 45.0445 7.46662 45.5111 8.16662 45.5111H17.5C18.2 45.5111 18.6666 45.0445 18.6666 44.3445C18.6666 43.6445 18.2 43.1779 17.5 43.1779Z" fill="#877BE3"/>
<path d="M66.5001 18.6779H40.8335C38.8501 18.6779 37.3335 20.1945 37.3335 22.1779V47.8445C37.3335 49.8279 38.8501 51.3445 40.8335 51.3445H66.5001C68.4835 51.3445 70.0001 49.8279 70.0001 47.8445V22.1779C70.0001 20.1945 68.4835 18.6779 66.5001 18.6779ZM67.6667 47.8445C67.6667 48.5445 67.2001 49.0111 66.5001 49.0111H40.8335C40.1335 49.0111 39.6669 48.5445 39.6669 47.8445V22.1779C39.6669 21.4779 40.1335 21.0112 40.8335 21.0112H66.5001C67.2001 21.0112 67.6667 21.4779 67.6667 22.1779V47.8445Z" fill="#877BE3"/>
<path d="M43.1666 26.8446H54.8332C55.5332 26.8446 55.9999 26.378 55.9999 25.678C55.9999 24.978 55.5332 24.5114 54.8332 24.5114H43.1666C42.4666 24.5114 42 24.978 42 25.678C42 26.378 42.4666 26.8446 43.1666 26.8446Z" fill="#877BE3"/>
<path d="M59.5 29.1779H46.6666C45.9666 29.1779 45.5 29.6445 45.5 30.3445C45.5 31.0445 45.9666 31.5111 46.6666 31.5111H59.5C60.2 31.5111 60.6666 31.0445 60.6666 30.3445C60.6666 29.6445 60.2 29.1779 59.5 29.1779Z" fill="#877BE3"/>
<path d="M54.8335 33.8445H43.1669C42.4669 33.8445 42.0002 34.3111 42.0002 35.0111C42.0002 35.7111 42.4669 36.1777 43.1669 36.1777H54.8335C55.5335 36.1777 56.0001 35.7111 56.0001 35.0111C56.0001 34.3111 55.5335 33.8445 54.8335 33.8445Z" fill="#877BE3"/>
<path d="M49.0001 39.6778C49.0001 38.9778 48.5335 38.5112 47.8335 38.5112H43.1669C42.4669 38.5112 42.0002 38.9778 42.0002 39.6778C42.0002 40.3778 42.4669 40.8445 43.1669 40.8445H47.8335C48.5335 40.8445 49.0001 40.3778 49.0001 39.6778Z" fill="#877BE3"/>
<path d="M54.8335 43.1779H45.5001C44.8001 43.1779 44.3335 43.6445 44.3335 44.3445C44.3335 45.0445 44.8001 45.5111 45.5001 45.5111H54.8335C55.5335 45.5111 56.0001 45.0445 56.0001 44.3445C56.0001 43.6445 55.5335 43.1779 54.8335 43.1779Z" fill="#877BE3"/>
<path d="M16.3334 12.8445C16.45 12.8445 16.6834 12.8445 16.8 12.7279C23.45 9.46125 28.7 8.17787 35 8.17787C40.4575 8.17787 45.1277 9.14201 50.6021 11.5232L45.5 13.1945C44.9166 13.4279 44.5666 14.0111 44.8 14.5945C44.9166 15.0611 45.3834 15.4111 45.85 15.4111C45.9666 15.4111 46.0834 15.4111 46.2 15.2945L53.7552 12.8137C54.1703 12.7839 54.5553 12.5482 54.7166 12.1445C54.7757 12.0264 54.8045 11.8784 54.8038 11.7308C54.8141 11.4815 54.7502 11.2357 54.6198 11.033L52.15 3.51125C51.9166 2.92787 51.3334 2.57787 50.75 2.69463C50.1666 2.928 49.8166 3.628 50.05 4.21125L51.7936 9.53384C45.9413 6.94056 40.8809 5.84449 35 5.84449C28.35 5.84449 22.75 7.24449 15.8666 10.6279C15.2832 10.8612 15.05 11.5612 15.2832 12.1445C15.5166 12.6112 15.8666 12.8445 16.3334 12.8445Z" fill="#877BE3"/>
<path d="M53.2 57.2944C46.55 60.5611 41.3 61.8444 35 61.8444C29.576 61.8444 24.9296 60.8918 19.4987 58.5425L24.7334 56.8277C25.3168 56.5943 25.6668 55.8943 25.4334 55.3111C25.2 54.7278 24.5 54.3777 23.9168 54.6111L16.1002 57.1777C15.9703 57.221 15.8567 57.2804 15.7589 57.3498C15.5499 57.4634 15.378 57.6413 15.2834 57.8777C15.1339 58.2517 15.1769 58.6731 15.3802 58.9892L17.85 66.5109C17.9667 66.9776 18.4334 67.3276 18.9001 67.3276C19.1334 67.3276 19.2501 67.3276 19.4834 67.3276C20.0668 67.0942 20.4168 66.3942 20.1834 65.8109L18.4792 60.6086C24.2166 63.1158 29.2106 64.1776 35 64.1776C41.65 64.1776 47.25 62.7776 54.1334 59.3942C54.7168 59.1608 54.95 58.4608 54.7168 57.8775C54.4834 57.2944 53.7834 57.0612 53.2 57.2944Z" fill="#877BE3"/>
</svg>

<svg width="70" height="70" fill="none" xmlns="http://www.w3.org/2000/svg"><path d="M32.667 47.844V22.178c0-1.983-1.517-3.5-3.5-3.5H3.5c-1.983 0-3.5 1.517-3.5 3.5v25.666c0 1.984 1.517 3.5 3.5 3.5h25.667c1.983 0 3.5-1.516 3.5-3.5zm-30.334 0V22.178c0-.7.467-1.167 1.167-1.167h25.667c.7 0 1.166.467 1.166 1.167v25.666c0 .7-.466 1.167-1.166 1.167H3.5c-.7 0-1.167-.467-1.167-1.167z" fill="#877BE3"/><path d="M5.833 26.845H17.5c.7 0 1.167-.467 1.167-1.167s-.467-1.167-1.167-1.167H5.833c-.7 0-1.166.467-1.166 1.167s.466 1.167 1.166 1.167zm16.334 2.333H9.333c-.7 0-1.166.466-1.166 1.166s.466 1.167 1.166 1.167h12.834c.7 0 1.166-.466 1.166-1.166s-.466-1.167-1.166-1.167zM17.5 33.844H5.833c-.7 0-1.166.467-1.166 1.167s.466 1.167 1.166 1.167H17.5c.7 0 1.167-.467 1.167-1.167s-.467-1.167-1.167-1.167zm-5.833 5.834c0-.7-.467-1.167-1.167-1.167H5.833c-.7 0-1.166.467-1.166 1.167s.466 1.166 1.166 1.166H10.5c.7 0 1.167-.466 1.167-1.166zm5.833 3.5H8.167c-.7 0-1.167.467-1.167 1.166 0 .7.467 1.167 1.167 1.167H17.5c.7 0 1.167-.467 1.167-1.167s-.467-1.166-1.167-1.166zm49-24.5H40.834c-1.984 0-3.5 1.517-3.5 3.5v25.666c0 1.984 1.516 3.5 3.5 3.5H66.5c1.984 0 3.5-1.516 3.5-3.5V22.178c0-1.983-1.516-3.5-3.5-3.5zm1.167 29.166c0 .7-.467 1.167-1.167 1.167H40.834c-.7 0-1.167-.467-1.167-1.167V22.178c0-.7.466-1.167 1.166-1.167H66.5c.7 0 1.167.467 1.167 1.167v25.666z" fill="#877BE3"/><path d="M43.167 26.845h11.666c.7 0 1.167-.467 1.167-1.167s-.467-1.167-1.167-1.167H43.167c-.7 0-1.167.467-1.167 1.167s.467 1.167 1.167 1.167zM59.5 29.178H46.667c-.7 0-1.167.466-1.167 1.166s.467 1.167 1.167 1.167H59.5c.7 0 1.167-.466 1.167-1.166s-.467-1.167-1.167-1.167zm-4.666 4.666H43.166c-.7 0-1.167.467-1.167 1.167s.467 1.167 1.167 1.167h11.666c.7 0 1.167-.467 1.167-1.167s-.467-1.167-1.166-1.167zM49 39.678c0-.7-.467-1.167-1.166-1.167h-4.667c-.7 0-1.167.467-1.167 1.167s.467 1.166 1.167 1.166h4.666c.7 0 1.167-.466 1.167-1.166zm5.834 3.5H45.5c-.7 0-1.166.467-1.166 1.166 0 .7.466 1.167 1.166 1.167h9.334c.7 0 1.166-.467 1.166-1.167s-.467-1.166-1.166-1.166zM16.333 12.845c.117 0 .35 0 .467-.117 6.65-3.267 11.9-4.55 18.2-4.55 5.458 0 10.128.964 15.602 3.345L45.5 13.194c-.583.234-.933.817-.7 1.4a1.12 1.12 0 001.05.817c.117 0 .233 0 .35-.117l7.555-2.48c.415-.03.8-.266.962-.67a.934.934 0 00.087-.413c.01-.25-.054-.495-.184-.698l-2.47-7.522c-.233-.583-.817-.933-1.4-.816-.583.233-.933.933-.7 1.516l1.744 5.323C45.94 6.94 40.88 5.844 35 5.844c-6.65 0-12.25 1.4-19.133 4.784-.584.233-.817.933-.584 1.517.234.466.584.7 1.05.7zM53.2 57.294c-6.65 3.267-11.9 4.55-18.2 4.55-5.424 0-10.07-.952-15.501-3.302l5.234-1.714c.584-.234.934-.934.7-1.517-.233-.583-.933-.933-1.516-.7L16.1 57.178c-.13.043-.243.102-.341.172-.21.113-.381.291-.476.528a1.23 1.23 0 00.097 1.111l2.47 7.522a1.12 1.12 0 001.05.817h.583c.584-.234.934-.934.7-1.517l-1.704-5.202c5.738 2.507 10.732 3.569 16.521 3.569 6.65 0 12.25-1.4 19.133-4.784.584-.233.817-.933.584-1.517-.234-.583-.934-.816-1.517-.583z" fill="#877BE3"/></svg>
